assets/images/route-icon.svg

<?xml version="1.0" encoding="UTF-8"?>
<svg width="62px" height="64px" viewBox="0 0 62 64" version="1.1" xmlns="http://www.w3.org/2000/svg" xmlns:xlink="http://www.w3.org/1999/xlink">
    <title>route-icon</title>
    <g id="Page-1" stroke="none" stroke-width="1" fill="none" fill-rule="evenodd">
        <g id="iPhone-11-Copy-2" transform="translate(-324.000000, -1227.000000)" fill="#000000" fill-rule="nonzero">
            <g id="route-icon" transform="translate(324.000000, 1227.000000)">
                <path d="M51.6295256,0 C46.5880543,0 42.5184329,4.08380952 42.5184329,9.14285714 C42.5184329,11.0933333 43.1260766,12.9223808 44.2801483,14.5071427 L50.1715133,22.552381 C50.535957,23.04 51.0828601,23.2833335 51.6295256,23.2833335 C52.2369318,23.2833335 52.7230943,22.9790476 53.087538,22.552381 L58.9789036,14.5071427 C60.1329753,12.9223808 60.7406184,11.0933333 60.7406184,9.14285714 C60.7406184,4.08380952 56.670997,0 51.6295256,0 Z M51.6295256,3.65714286 C54.6665566,3.65714286 57.0961813,6.0952381 57.0961813,9.14285714 C57.0961813,10.3009524 56.7322114,11.3976192 56.0640646,12.3119049 L51.6295256,18.3464283 L47.1949861,12.3119049 C46.5268393,11.3976192 46.16287,10.3009524 46.16287,9.14285714 C46.16287,6.0952381 48.5924947,3.65714286 51.6295256,3.65714286 Z M15.1851546,24.3809524 C6.80294926,24.3809524 0,31.207619 0,39.6190476 C0,42.8495238 0.97137551,45.9578569 2.85433468,48.5178569 C2.9150753,48.6397617 3.03679342,48.7007141 3.09753404,48.8226188 L13.7271423,63.2690469 C14.091586,63.6957135 14.5777484,64 15.1851546,64 C15.7925608,64 16.2787232,63.6957135 16.6431669,63.2690469 L27.2727752,48.8226188 L27.4542851,48.5785716 L27.5159745,48.5178569 C29.3989337,45.8969045 30.3703092,42.8495238 30.3703092,39.6190476 C30.3703092,31.207619 23.5673599,24.3809524 15.1851546,24.3809524 Z M48.3884439,24.8119046 C47.8041714,24.7863095 47.2104082,25.0440478 46.8307793,25.5392859 L45.73816,27.0023808 C45.1307539,27.7947618 45.2519982,28.952381 46.1023669,29.5619048 C46.40607,29.8057143 46.8305424,29.9273807 47.1949861,29.9273807 C47.7416517,29.9273807 48.2885541,29.6840478 48.6529978,29.1964288 L49.746804,27.7333333 C50.3542102,26.9409524 50.1722252,25.7833332 49.3825971,25.1738094 C49.0864866,24.9452379 48.7390078,24.8272622 48.3884439,24.8119046 Z M15.1851546,28.0380952 C21.5629195,28.0380952 26.7258721,33.2190476 26.7258721,39.6190476 C26.7258721,42.0571429 25.9972222,44.4340474 24.5394473,46.3845236 L24.5394473,46.4452382 L15.1851546,59.1238095 L6.01355872,46.6285714 C5.9528181,46.567619 5.89160249,46.5064283 5.83086187,46.3845236 C4.37308703,44.4340474 3.6444371,42.0571429 3.6444371,39.6190476 C3.6444371,33.2190476 8.80738967,28.0380952 15.1851546,28.0380952 Z M42.9217883,32.1261903 C42.3375157,32.1005952 41.7437525,32.3583336 41.3641236,32.8535717 L40.2715044,34.3166665 C39.6640982,35.1090475 39.8460832,36.2666667 40.6357112,36.8761905 C40.9394143,37.12 41.3638868,37.2416664 41.7283305,37.2416664 C42.274996,37.2416664 42.8218985,36.9983336 43.1863422,36.5107145 L44.2801483,35.047619 C44.8875545,34.2552381 44.7055695,33.0976189 43.9159415,32.4880951 C43.619831,32.2595237 43.2723521,32.1415479 42.9217883,32.1261903 Z M15.1851546,33.5238095 C11.8305429,33.5238095 9.11109276,36.2527406 9.11109276,39.6190476 C9.11109276,42.9853547 11.8305429,45.7142857 15.1851546,45.7142857 C18.5397663,45.7142857 21.2592164,42.9853547 21.2592164,39.6190476 C21.2592164,36.2527406 18.5397663,33.5238095 15.1851546,33.5238095 Z M40.9014514,39.3369045 C40.4383042,39.3140474 39.9668525,39.4671427 39.6024088,39.8023808 C38.8127808,40.4119046 38.7525145,41.5695238 39.481402,42.3619048 L40.6962143,43.7023811 C41.060658,44.0680954 41.5461086,44.3119049 42.0320336,44.3119049 C42.4572179,44.3119049 42.9431428,44.1297621 43.2468459,43.8250002 C43.9757333,43.154524 44.0371858,41.9957144 43.369039,41.2642859 L42.1542267,39.9238095 C41.8201533,39.5580952 41.3645986,39.3597617 40.9014514,39.3369045 Z M47.0360164,46.0416664 C46.5728692,46.0188093 46.1026038,46.1719046 45.73816,46.5071427 C45.0092726,47.1776189 44.9478201,48.3352381 45.6159669,49.0666667 L46.8307793,50.407143 C47.195223,50.7728573 47.6818598,51.0166668 48.1677848,51.0166668 C48.5929691,51.0166668 49.0788941,50.834524 49.3825971,50.5297621 C50.1114846,49.8592859 50.1717508,48.7004763 49.503604,47.9690478 L48.2887916,46.6285714 C47.9547182,46.2628571 47.4991636,46.0645236 47.0360164,46.0416664 Z M53.2310851,52.7464283 C52.7679379,52.7235712 52.2976724,52.8766665 51.9332287,53.211904 C51.2043413,53.8823802 51.1440751,55.04 51.8122219,55.7714286 L53.0270343,57.1119055 C53.391478,57.4776198 53.8769285,57.7214293 54.3628535,57.7214293 C54.7880378,57.7214293 55.2739628,57.5392853 55.5776658,57.2345234 C56.3065533,56.5640472 56.3668201,55.4052389 55.6986733,54.6738103 L54.4838603,53.3333333 C54.1497869,52.967619 53.6942323,52.7692855 53.2310851,52.7464283 Z M59.4273394,59.4511909 C58.9641922,59.4283337 58.4927417,59.5814278 58.128298,59.9166659 C57.5208919,60.4652373 57.3996475,61.3792853 57.7640912,62.1107139 L57.7640912,62.1714286 C57.7640912,63.207619 58.5537193,64 59.5863098,64 L60.193716,64 C60.9226034,64 61.5914608,63.5728579 61.8344233,62.9023817 C62.1381264,62.2319055 62.0166452,61.44 61.5307202,60.952381 L60.6801147,60.0380952 C60.3460413,59.672381 59.8904866,59.474048 59.4273394,59.4511909 Z M23.081435,60.3428571 C22.0488445,60.3428571 21.2592164,61.1352381 21.2592164,62.1714286 C21.2592164,63.207619 22.0488445,64 23.081435,64 L24.9036535,64 C25.9362441,64 26.7258721,63.207619 26.7258721,62.1714286 C26.7258721,61.1352381 25.9362441,60.3428571 24.9036535,60.3428571 L23.081435,60.3428571 Z M32.1925278,60.3428571 C31.1599372,60.3428571 30.3703092,61.1352381 30.3703092,62.1714286 C30.3703092,63.207619 31.1599372,64 32.1925278,64 L34.0147463,64 C35.0473368,64 35.8369649,63.207619 35.8369649,62.1714286 C35.8369649,61.1352381 35.0473368,60.3428571 34.0147463,60.3428571 L32.1925278,60.3428571 Z M41.3036205,60.3428571 C40.27103,60.3428571 39.481402,61.1352381 39.481402,62.1714286 C39.481402,63.207619 40.27103,64 41.3036205,64 L43.1258391,64 C44.1584296,64 44.9480576,63.207619 44.9480576,62.1714286 C44.9480576,61.1352381 44.1584296,60.3428571 43.1258391,60.3428571 L41.3036205,60.3428571 Z M50.4147133,60.3428571 C49.3821228,60.3428571 48.5924947,61.1352381 48.5924947,62.1714286 C48.5924947,63.207619 49.3821228,64 50.4147133,64 L52.2369318,64 C53.2695223,64 54.0591504,63.207619 54.0591504,62.1714286 C54.0591504,61.1352381 53.2695223,60.3428571 52.2369318,60.3428571 L50.4147133,60.3428571 Z" id="Shape"></path>
            </g>
        </g>
    </g>
</svg>

<svg width="62" height="64" xmlns="http://www.w3.org/2000/svg"><path d="M51.6295 0c-5.0414 0-9.111 4.0838-9.111 9.1429 0 1.9504.6076 3.7795 1.7616 5.3642l5.8914 8.0453c.3645.4876.9114.731 1.458.731.6074 0 1.0936-.3044 1.458-.731l5.8914-8.0453c1.154-1.5847 1.7617-3.4138 1.7617-5.3642C60.7406 4.0839 56.671 0 51.6296 0zm0 3.6571c3.037 0 5.4667 2.4381 5.4667 5.4858 0 1.158-.364 2.2547-1.0321 3.169l-4.4346 6.0345-4.4345-6.0345c-.6682-.9143-1.0321-2.011-1.0321-3.169 0-3.0477 2.4296-5.4858 5.4666-5.4858zM15.1852 24.381C6.8029 24.381 0 31.2076 0 39.619c0 3.2305.9714 6.3389 2.8543 8.8989.0608.1219.1825.1828.2432.3047L13.7271 63.269c.3645.4267.8506.731 1.458.731.6075 0 1.0936-.3043 1.458-.731l10.6297-14.4464.1815-.244.0617-.0607c1.883-2.621 2.8543-5.6684 2.8543-8.8989 0-8.4114-6.803-15.238-15.1851-15.238zm33.2032.4309c-.5842-.0256-1.178.2321-1.5576.7274l-1.0926 1.463c-.6074.7925-.4862 1.95.3642 2.5596.3037.2438.7281.3655 1.0926.3655.5467 0 1.0936-.2434 1.458-.731l1.0938-1.463c.6074-.7924.4254-1.95-.3642-2.5596a1.7445 1.7445 0 00-.9942-.3619zm-33.2032 3.2262c6.3777 0 11.5407 5.181 11.5407 11.581 0 2.438-.7287 4.815-2.1865 6.7654v.0607l-9.3542 12.6786-9.1716-12.4952c-.0608-.061-.122-.1222-.1827-.244C4.373 44.434 3.6444 42.057 3.6444 39.619c0-6.4 5.163-11.5809 11.5408-11.5809zm27.7366 4.088c-.5843-.0255-1.178.2322-1.5577.7275l-1.0926 1.463c-.6074.7924-.4254 1.95.3642 2.5596.3037.2438.7282.3655 1.0926.3655.5467 0 1.0936-.2434 1.458-.731l1.0938-1.463c.6075-.7925.4255-1.95-.3642-2.5596a1.7445 1.7445 0 00-.9941-.362zm-27.7366 1.3977c-3.3547 0-6.0741 2.729-6.0741 6.0952 0 3.3664 2.7194 6.0953 6.074 6.0953 3.3547 0 6.0741-2.729 6.0741-6.0953s-2.7194-6.0952-6.074-6.0952zm25.7163 5.8131c-.4632-.0229-.9346.1302-1.299.4655-.7897.6095-.85 1.7671-.1211 2.5595l1.2148 1.3405c.3645.3657.85.6095 1.3358.6095.4252 0 .9111-.1821 1.2148-.4869.729-.6705.7904-1.8293.1222-2.5607l-1.2148-1.3405c-.334-.3657-.7896-.564-1.2527-.5869zm6.1345 6.7048c-.4631-.0229-.9334.1302-1.2978.4654-.729.6705-.7904 1.8281-.1222 2.5596l1.2148 1.3404c.3644.3658.851.6096 1.337.6096.4252 0 .911-.1822 1.2148-.487.7289-.6704.7892-1.8292.121-2.5607l-1.2148-1.3404c-.334-.3657-.7896-.564-1.2528-.587zm6.195 6.7047c-.463-.0228-.9333.1303-1.2978.4655-.7289.6705-.7891 1.8281-.121 2.5595l1.2148 1.3405c.3645.3657.85.6095 1.3359.6095.4251 0 .911-.1821 1.2148-.4869.7289-.6705.7891-1.8293.121-2.5607l-1.2148-1.3405c-.3341-.3657-.7897-.564-1.2528-.5869zm6.1963 6.7048c-.4631-.0229-.9346.1302-1.299.4655-.6074.5485-.7287 1.4626-.3642 2.194v.0607c0 1.0362.7896 1.8286 1.8222 1.8286h.6074c.7289 0 1.3978-.4271 1.6407-1.0976.3037-.6705.1822-1.4624-.3037-1.95l-.8506-.9143c-.334-.3657-.7896-.564-1.2528-.587zm-36.3459.8917c-1.0326 0-1.8222.7923-1.8222 1.8285S22.0488 64 23.0814 64h1.8223c1.0325 0 1.8222-.7924 1.8222-1.8286s-.7897-1.8285-1.8222-1.8285h-1.8223zm9.1111 0c-1.0326 0-1.8222.7923-1.8222 1.8285S31.16 64 32.1925 64h1.8222c1.0326 0 1.8223-.7924 1.8223-1.8286s-.7897-1.8285-1.8223-1.8285h-1.8222zm9.1111 0c-1.0326 0-1.8222.7923-1.8222 1.8285S40.271 64 41.3036 64h1.8222c1.0326 0 1.8223-.7924 1.8223-1.8286s-.7897-1.8285-1.8223-1.8285h-1.8222zm9.1111 0c-1.0326 0-1.8222.7923-1.8222 1.8285S49.382 64 50.4147 64h1.8222c1.0326 0 1.8223-.7924 1.8223-1.8286s-.7897-1.8285-1.8223-1.8285h-1.8222z" fill="#000" fill-rule="nonzero"/></svg>
